X: 3
T: The Goodnatured Man
R: hornpipe
M: 4/4
L: 1/8
K: Gmaj
d2 | g2bg d2gd | BcdB G2AB | c2ec A2 ag | fgaf d2 ef|g2bg d2gd | BcdB G2AB | cedc BAGF | Az G2 G2 :|Bc | dBdB g2g2 | ecec a2a2 | fdfd g2g2 | fgaf d2 ef |g2bg d2gd | BcdB G2AB | cedc BAGF | Az G2 G2 :|


Tune 312	Setting 21000

